X:1
T:[ID 7-45]
T:[ID 7-45]
T:Bezeichnung standardisiert: Allerliebstes Lischen; Allerliebstes Lisgen
T:Urheber unbekannt Datum in der hier transkribierten schriftlichen Quelle: 1776 - 1791
C:Urheber unbekannt
C:Datum in der hier transkribierten schriftlichen Quelle: 1776 - 1791
%%score 1 2
L:1/8
M:2/4
K:D
V:1 treble 
V:2 treble 
V:1
 d>efg | af d2 | bb ba/g/ | af d2 | bb ba/g/ | af d2 | aa{a} g2 | ff{f} e2 | aa{a} g2 | ff{f} e2 | %10
{g} fe/d/ c/d/e/c/ | d2 D2 :: aa ag/f/ | gb/g/ e2 | fe/f/ g/f/e/d/ | c/d/e/c/ A2 | dd/f/eA | %17
 dd/f/ e2 | dd/f/eA | dd/f/ea/g/ |{g} fe/d/ c/d/e/c/ | d2 D2 :| %22
V:2
 !fermata!d>cde | fd F2 | gg gf/e/ | fd F2 | gg gf/e/ | fd F2 | ff{f} e2 | dd{d} c2 | ff{f} e2 | %9
 dd{d} c2 | dc/B/ A/G/F/E/ | F2 F2 :: ff fe/d/ | eg/e/ c2 | dc/d/ e/d/c/B/ | A/d/e/c/ A2 | %16
 FF/d/ cA | FF/d/ c2 | FF/d/ cA | FF/d/ cf/e/ | dc/B/ A/G/F/E/ | F2 F2 :| %22

